static/img/kroki/cfc6eddeeccf8e9108d4a1b4f2dbf5c8.svg

<?xml version="1.0" encoding="us-ascii" standalone="no"?><svg xmlns="http://www.w3.org/2000/svg" xmlns:xlink="http://www.w3.org/1999/xlink" contentStyleType="text/css" height="374px" preserveAspectRatio="none" style="width:403px;height:374px;" version="1.1" viewBox="0 0 403 374" width="403px" zoomAndPan="magnify"><defs/><g><!--class azure_network_route_table--><g id="elem_azure_network_route_table"><rect codeLine="23" fill="#3D176E" height="39.7891" id="azure_network_route_table" rx="2.5" ry="2.5" style="stroke:#000D19;stroke-width:0.5;" width="272" x="76" y="328.58"/><ellipse cx="91" cy="348.4745" fill="#ADD1B2" rx="11" ry="11" style="stroke:#181818;stroke-width:1.0;"/><path d="M93.9688,354.1152 Q93.3906,354.412 92.75,354.5527 Q92.1094,354.7089 91.4063,354.7089 Q88.9063,354.7089 87.5781,353.0683 Q86.2656,351.412 86.2656,348.287 Q86.2656,345.162 87.5781,343.5058 Q88.9063,341.8495 91.4063,341.8495 Q92.1094,341.8495 92.75,342.0058 Q93.4063,342.162 93.9688,342.4589 L93.9688,345.1777 Q93.3438,344.5995 92.75,344.3339 Q92.1563,344.0527 91.5313,344.0527 Q90.1875,344.0527 89.5,345.1308 Q88.8125,346.1933 88.8125,348.287 Q88.8125,350.3808 89.5,351.4589 Q90.1875,352.5214 91.5313,352.5214 Q92.1563,352.5214 92.75,352.2558 Q93.3438,351.9745 93.9688,351.3964 L93.9688,354.1152 Z " fill="#000000"/><text fill="#D9B8FF" font-family="Helvetica" font-size="17" lengthAdjust="spacing" textLength="230" x="110" y="354.3598">azure_network_route_table</text></g><!--class microsoft_resource--><g id="elem_microsoft_resource"><rect codeLine="26" fill="#3D176E" height="39.7891" id="microsoft_resource" rx="2.5" ry="2.5" style="stroke:#000D19;stroke-width:0.5;" width="200" x="7" y="167.79"/><ellipse cx="22" cy="187.6845" fill="#ADD1B2" rx="11" ry="11" style="stroke:#181818;stroke-width:1.0;"/><path d="M24.9688,193.3252 Q24.3906,193.622 23.75,193.7627 Q23.1094,193.9189 22.4063,193.9189 Q19.9063,193.9189 18.5781,192.2783 Q17.2656,190.622 17.2656,187.497 Q17.2656,184.372 18.5781,182.7158 Q19.9063,181.0595 22.4063,181.0595 Q23.1094,181.0595 23.75,181.2158 Q24.4063,181.372 24.9688,181.6689 L24.9688,184.3877 Q24.3438,183.8095 23.75,183.5439 Q23.1563,183.2627 22.5313,183.2627 Q21.1875,183.2627 20.5,184.3408 Q19.8125,185.4033 19.8125,187.497 Q19.8125,189.5908 20.5,190.6689 Q21.1875,191.7314 22.5313,191.7314 Q23.1563,191.7314 23.75,191.4658 Q24.3438,191.1845 24.9688,190.6064 L24.9688,193.3252 Z " fill="#000000"/><text fill="#D9B8FF" font-family="Helvetica" font-size="17" lengthAdjust="spacing" textLength="158" x="41" y="193.5698">microsoft_resource</text></g><!--class resource--><g id="elem_resource"><rect codeLine="29" fill="#3D176E" height="39.7891" id="resource" rx="2.5" ry="2.5" style="stroke:#000D19;stroke-width:0.5;" width="113" x="155.5" y="7"/><ellipse cx="170.5" cy="26.8945" fill="#ADD1B2" rx="11" ry="11" style="stroke:#181818;stroke-width:1.0;"/><path d="M173.4688,32.5352 Q172.8906,32.832 172.25,32.9727 Q171.6094,33.1289 170.9063,33.1289 Q168.4063,33.1289 167.0781,31.4883 Q165.7656,29.832 165.7656,26.707 Q165.7656,23.582 167.0781,21.9258 Q168.4063,20.2695 170.9063,20.2695 Q171.6094,20.2695 172.25,20.4258 Q172.9063,20.582 173.4688,20.8789 L173.4688,23.5977 Q172.8438,23.0195 172.25,22.7539 Q171.6563,22.4727 171.0313,22.4727 Q169.6875,22.4727 169,23.5508 Q168.3125,24.6133 168.3125,26.707 Q168.3125,28.8008 169,29.8789 Q169.6875,30.9414 171.0313,30.9414 Q171.6563,30.9414 172.25,30.6758 Q172.8438,30.3945 173.4688,29.8164 L173.4688,32.5352 Z " fill="#000000"/><text fill="#D9B8FF" font-family="Helvetica" font-size="17" lengthAdjust="spacing" textLength="71" x="189.5" y="32.7798">resource</text></g><!--class routing_table--><g id="elem_routing_table"><rect codeLine="32" fill="#3D176E" height="39.7891" id="routing_table" rx="2.5" ry="2.5" style="stroke:#000D19;stroke-width:0.5;" width="154" x="242" y="167.79"/><ellipse cx="257" cy="187.6845" fill="#ADD1B2" rx="11" ry="11" style="stroke:#181818;stroke-width:1.0;"/><path d="M259.9688,193.3252 Q259.3906,193.622 258.75,193.7627 Q258.1094,193.9189 257.4063,193.9189 Q254.9063,193.9189 253.5781,192.2783 Q252.2656,190.622 252.2656,187.497 Q252.2656,184.372 253.5781,182.7158 Q254.9063,181.0595 257.4063,181.0595 Q258.1094,181.0595 258.75,181.2158 Q259.4063,181.372 259.9688,181.6689 L259.9688,184.3877 Q259.3438,183.8095 258.75,183.5439 Q258.1563,183.2627 257.5313,183.2627 Q256.1875,183.2627 255.5,184.3408 Q254.8125,185.4033 254.8125,187.497 Q254.8125,189.5908 255.5,190.6689 Q256.1875,191.7314 257.5313,191.7314 Q258.1563,191.7314 258.75,191.4658 Q259.3438,191.1845 259.9688,190.6064 L259.9688,193.3252 Z " fill="#000000"/><text fill="#D9B8FF" font-family="Helvetica" font-size="17" lengthAdjust="spacing" textLength="112" x="276" y="193.5698">routing_table</text></g><!--reverse link microsoft_resource to azure_network_route_table--><g id="link_microsoft_resource_azure_network_route_table"><path codeLine="35" d="M129.5978,222.8546 C149.7778,253.3746 179.08,297.69 199.29,328.25 " fill="none" id="microsoft_resource-backto-azure_network_route_table" style="stroke:#FFAF37;stroke-width:2.0;"/><polygon fill="none" points="119.67,207.84,124.5929,226.1639,134.6026,219.5454,119.67,207.84" style="stroke:#FFAF37;stroke-width:2.0;"/></g><!--reverse link routing_table to azure_network_route_table--><g id="link_routing_table_azure_network_route_table"><path codeLine="36" d="M296.0333,222.7686 C275.4733,253.2886 245.55,297.69 224.95,328.25 " fill="none" id="routing_table-backto-azure_network_route_table" style="stroke:#FFAF37;stroke-width:2.0;"/><polygon fill="none" points="306.09,207.84,291.0571,219.4163,301.0095,226.1208,306.09,207.84" style="stroke:#FFAF37;stroke-width:2.0;"/></g><!--reverse link resource to microsoft_resource--><g id="link_resource_microsoft_resource"><path codeLine="37" d="M189.4022,62.0646 C169.2222,92.5846 139.92,136.9 119.71,167.46 " fill="none" id="resource-backto-microsoft_resource" style="stroke:#FFAF37;stroke-width:2.0;"/><polygon fill="none" points="199.33,47.05,184.3974,58.7554,194.4071,65.3739,199.33,47.05" style="stroke:#FFAF37;stroke-width:2.0;"/></g><!--reverse link resource to routing_table--><g id="link_resource_routing_table"><path codeLine="38" d="M234.9667,61.9786 C255.5267,92.4986 285.45,136.9 306.05,167.46 " fill="none" id="resource-backto-routing_table" style="stroke:#FFAF37;stroke-width:2.0;"/><polygon fill="none" points="224.91,47.05,229.9905,65.3308,239.9429,58.6263,224.91,47.05" style="stroke:#FFAF37;stroke-width:2.0;"/></g><!--SRC=[XP1DJy9048Rl_HMRS2O1YGA95o0nUY56l3VJxYniskwGsQa4rFzk4JJR3-0wxvFtOpPMey9YAtjLO94W-yXdrcs1eL0pPjejA2TMFMF0ZCPDyOcSt0IMKA1wnlm3nQRG9DutDiqSUg_k0caEQRPcAfq-sGk3yvM4JW9gaOFtCn6sIIaObD7JP69CasoQzaPwE7x05aQiaS_8O33GmsaJkHbrTVS_iR87LCFmQKiIRDLiHVnILriUYQ1aQ-YVVh7ZAsXjtLhT1xUtKoTsoBNxQWEQTaVQGEx362_8IBBVugAr2gSJRSQTyCibE4gFhrDmA1bZXx8ZpkAA4um5aXpLPnHzdw72faoUZCICdafEQshdhJAgLeHM7IQFN_r-_tA5gEvoawxRjlEQHCq- -W40]--></g></svg>

<svg xmlns="http://www.w3.org/2000/svg" width="403" height="374" viewBox="0 0 403 374"><rect width="272" height="39.789" x="76" y="328.58" fill="#3D176E" rx="2.5" ry="2.5" style="stroke:#000d19;stroke-width:.5"/><circle cx="91" cy="348.474" r="11" fill="#ADD1B2" style="stroke:#181818;stroke-width:1"/><path d="M93.969 354.115q-.578.297-1.219.438-.64.156-1.344.156-2.5 0-3.828-1.64-1.312-1.657-1.312-4.782t1.312-4.781q1.328-1.656 3.828-1.656.703 0 1.344.156.656.156 1.219.453v2.719q-.625-.579-1.219-.844-.594-.281-1.219-.281-1.344 0-2.031 1.078-.687 1.062-.687 3.156t.687 3.172q.688 1.062 2.031 1.062.625 0 1.219-.265.594-.281 1.219-.86z"/><text x="110" y="354.36" fill="#D9B8FF" font-family="Helvetica" font-size="17" textLength="230">azure_network_route_table</text><rect width="200" height="39.789" x="7" y="167.79" fill="#3D176E" rx="2.5" ry="2.5" style="stroke:#000d19;stroke-width:.5"/><circle cx="22" cy="187.685" r="11" fill="#ADD1B2" style="stroke:#181818;stroke-width:1"/><path d="M24.969 193.325q-.578.297-1.219.438-.64.156-1.344.156-2.5 0-3.828-1.64-1.312-1.657-1.312-4.782t1.312-4.781q1.328-1.656 3.828-1.656.703 0 1.344.156.656.156 1.219.453v2.719q-.625-.578-1.219-.844-.594-.281-1.219-.281-1.343 0-2.031 1.078-.687 1.062-.687 3.156t.687 3.172q.688 1.062 2.031 1.062.625 0 1.219-.265.594-.281 1.219-.86z"/><text x="41" y="193.57" fill="#D9B8FF" font-family="Helvetica" font-size="17" textLength="158">microsoft_resource</text><rect width="113" height="39.789" x="155.5" y="7" fill="#3D176E" rx="2.5" ry="2.5" style="stroke:#000d19;stroke-width:.5"/><circle cx="170.5" cy="26.895" r="11" fill="#ADD1B2" style="stroke:#181818;stroke-width:1"/><path d="M173.469 32.535q-.578.297-1.219.438-.64.156-1.344.156-2.5 0-3.828-1.64-1.312-1.657-1.312-4.782t1.312-4.781q1.328-1.656 3.828-1.656.703 0 1.344.156.656.156 1.219.453v2.719q-.625-.578-1.219-.844-.594-.281-1.219-.281-1.344 0-2.031 1.078-.687 1.062-.687 3.156t.687 3.172q.688 1.062 2.031 1.062.625 0 1.219-.265.594-.281 1.219-.86z"/><text x="189.5" y="32.78" fill="#D9B8FF" font-family="Helvetica" font-size="17" textLength="71">resource</text><rect width="154" height="39.789" x="242" y="167.79" fill="#3D176E" rx="2.5" ry="2.5" style="stroke:#000d19;stroke-width:.5"/><circle cx="257" cy="187.685" r="11" fill="#ADD1B2" style="stroke:#181818;stroke-width:1"/><path d="M259.969 193.325q-.578.297-1.219.438-.64.156-1.344.156-2.5 0-3.828-1.64-1.312-1.657-1.312-4.782t1.312-4.781q1.328-1.656 3.828-1.656.703 0 1.344.156.656.156 1.219.453v2.719q-.625-.578-1.219-.844-.594-.281-1.219-.281-1.344 0-2.031 1.078-.687 1.062-.687 3.156t.687 3.172q.688 1.062 2.031 1.062.625 0 1.219-.265.594-.281 1.219-.86z"/><text x="276" y="193.57" fill="#D9B8FF" font-family="Helvetica" font-size="17" textLength="112">routing_table</text><path fill="none" d="M129.598 222.855c20.18 30.52 49.482 74.835 69.692 105.395m-79.62-120.41 4.923 18.324 10.01-6.619zm176.363 14.929A498557 498557 0 0 1 224.95 328.25m81.14-120.41-15.033 11.576 9.952 6.705zM189.402 62.065c-20.18 30.52-49.482 74.835-69.692 105.395m79.62-120.41-14.933 11.705 10.01 6.619zm35.637 14.929c20.56 30.52 50.483 74.921 71.083 105.481M224.91 47.05l5.08 18.28 9.953-6.704z" style="stroke:#ffaf37;stroke-width:2"/></svg>
